src/assets/images/heroes/spiderman.svg

<svg width="256" height="256" viewBox="0 0 256 256" fill="none" xmlns="http://www.w3.org/2000/svg">
<path opacity="0.2" d="M128 247.322C62.1 247.322 8.67799 193.9 8.67799 128C8.67799 194.274 62.1 248 128 248C193.9 248 247.322 194.274 247.322 128C247.322 193.9 193.9 247.322 128 247.322Z" fill="#B71C1C"/>
<path opacity="0.2" d="M128 8.678C193.9 8.678 247.322 62.1 247.322 128C247.322 61.726 193.9 8 128 8C62.1 8 8.67799 61.726 8.67799 128C8.67799 62.1 62.1 8.678 128 8.678Z" fill="white"/>
<path d="M128 247.322C193.9 247.322 247.322 193.9 247.322 128C247.322 62.1003 193.9 8.67798 128 8.67798C62.1003 8.67798 8.67799 62.1003 8.67799 128C8.67799 193.9 62.1003 247.322 128 247.322Z" fill="#F44336"/>
<path d="M203.563 85.313C203.563 85.313 182.708 111.65 156.789 132.405C149.342 138.368 141.424 144.065 133.37 148.849C135.523 155.336 140.051 162.458 145.612 167.848C145.951 168.198 146.295 168.542 146.644 168.88C146.983 169.23 200.441 222.676 200.519 222.755C227.962 201.72 246.001 169.037 247.246 132.091C247.242 132.063 247.279 130.251 247.279 130.251" fill="url(#paint0_linear)"/>
<path d="M123.662 149.88C123.278 149.652 122.897 149.412 122.514 149.18C122.552 149.07 122.594 148.958 122.631 148.848C114.577 144.064 106.659 138.367 99.212 132.404C96.284 130.059 93.434 127.672 90.673 125.284C90.407 124.973 90.257 124.795 90.257 124.795C90.257 124.795 90.251 124.837 90.241 124.911C90.199 124.874 90.156 124.837 90.113 124.8C89.532 124.128 89.225 123.763 89.225 123.763C89.225 123.763 89.217 123.822 89.205 123.912C88.547 123.151 88.193 122.732 88.193 122.732C88.193 122.732 88.185 122.791 88.173 122.881C87.514 122.12 87.161 121.701 87.161 121.701C87.161 121.701 87.153 121.76 87.141 121.85C86.483 121.089 86.129 120.67 86.129 120.67C86.129 120.67 86.121 120.729 86.109 120.819C85.451 120.058 85.097 119.639 85.097 119.639C85.097 119.639 85.089 119.698 85.077 119.788C84.419 119.027 84.065 118.608 84.065 118.608C84.065 118.608 84.057 118.667 84.045 118.757C83.387 117.996 83.033 117.577 83.033 117.577C83.033 117.577 83.025 117.636 83.013 117.726C82.355 116.965 82.001 116.546 82.001 116.546C82.001 116.546 81.993 116.605 81.981 116.695C81.323 115.934 80.969 115.515 80.969 115.515C80.969 115.515 80.961 115.574 80.949 115.664C80.291 114.903 79.937 114.484 79.937 114.484C79.937 114.484 79.929 114.543 79.917 114.633C79.259 113.872 78.905 113.453 78.905 113.453C78.905 113.453 78.897 113.512 78.885 113.602C78.227 112.841 77.873 112.422 77.873 112.422C77.873 112.422 77.865 112.481 77.853 112.571C77.195 111.81 76.841 111.391 76.841 111.391C76.841 111.391 76.833 111.45 76.821 111.54C76.163 110.779 75.809 110.36 75.809 110.36C75.809 110.36 75.801 110.419 75.789 110.509C75.131 109.748 74.777 109.329 74.777 109.329C74.777 109.329 74.769 109.388 74.757 109.478C74.099 108.717 73.745 108.298 73.745 108.298C73.745 108.298 73.737 108.357 73.725 108.447C73.067 107.686 72.713 107.267 72.713 107.267C72.713 107.267 72.705 107.326 72.693 107.416C72.035 106.655 71.681 106.236 71.681 106.236C71.681 106.236 71.673 106.295 71.661 106.385C71.003 105.624 70.649 105.205 70.649 105.205C70.649 105.205 70.641 105.264 70.629 105.354C69.971 104.593 69.617 104.174 69.617 104.174C69.617 104.174 69.609 104.233 69.597 104.323C68.939 103.562 68.585 103.143 68.585 103.143C68.585 103.143 68.577 103.202 68.565 103.292C67.907 102.531 67.553 102.112 67.553 102.112C67.553 102.112 67.545 102.171 67.533 102.261C66.874 101.5 66.521 101.081 66.521 101.081C66.521 101.081 66.513 101.14 66.502 101.23C65.844 100.469 65.49 100.05 65.49 100.05C65.49 100.05 65.482 100.109 65.471 100.199C64.812 99.438 64.459 99.019 64.459 99.019C64.459 99.019 64.451 99.078 64.44 99.168C63.781 98.407 63.428 97.988 63.428 97.988C63.428 97.988 63.42 98.047 63.409 98.137C62.75 97.376 62.397 96.957 62.397 96.957C62.397 96.957 62.389 97.016 62.378 97.106C61.719 96.345 61.366 95.926 61.366 95.926C61.366 95.926 61.358 95.985 61.347 96.075C60.688 95.314 60.335 94.895 60.335 94.895C60.335 94.895 60.327 94.954 60.316 95.044C59.657 94.283 59.304 93.864 59.304 93.864C59.304 93.864 59.296 93.923 59.285 94.013C58.626 93.252 58.273 92.833 58.273 92.833C58.273 92.833 58.265 92.892 58.254 92.982C57.595 92.221 57.242 91.802 57.242 91.802C57.242 91.802 57.234 91.861 57.223 91.951C56.564 91.19 56.211 90.771 56.211 90.771C56.211 90.771 56.203 90.83 56.192 90.92C55.533 90.159 55.18 89.74 55.18 89.74C55.18 89.74 55.172 89.799 55.161 89.889C54.502 89.128 54.149 88.709 54.149 88.709C54.149 88.709 54.141 88.768 54.13 88.858C53.471 88.097 53.118 87.678 53.118 87.678C53.118 87.678 51.906 96.579 51.879 108.764C51.863 115.9 52.252 124.16 53.531 132.424C55.612 145.667 60.051 158.902 68.911 167.361C69.249 167.711 146.955 245.421 147.307 245.757C147.312 245.762 147.318 245.768 147.323 245.773C166.047 242.723 183.304 235.318 198.026 224.629C197.957 224.568 123.625 149.99 123.662 149.88Z" fill="url(#paint1_linear)"/>
<path d="M99.211 132.405C73.292 111.649 53.121 87.661 53.121 87.661C53.121 87.661 51.909 96.562 51.882 108.747C51.932 96.93 53.121 88.339 53.121 88.339C53.121 88.339 73.292 111.964 99.211 132.405Z" stroke="#212121" stroke-width="2" stroke-miterlimit="10"/>
<path d="M93.014 176.475C105.306 176.475 118.446 161.456 122.631 148.849C114.577 144.065 106.659 138.368 99.212 132.405C73.293 111.964 53.122 88.339 53.122 88.339C53.122 88.339 51.933 96.93 51.883 108.747C51.867 115.883 52.256 124.143 53.535 132.407C56.995 154.441 66.969 176.474 93.014 176.475Z" fill="white"/>
<path fill-rule="evenodd" clip-rule="evenodd" d="M53.8825 87.6897L53.122 88.339L52.1315 88.2019L52.4367 85.9963L53.8825 87.6897ZM53.8504 90.6919C53.752 91.6091 53.6354 92.7901 53.5178 94.195C53.216 97.7991 52.9079 102.874 52.883 108.75C52.8671 115.851 53.2544 124.055 54.5231 132.253C56.2418 143.198 59.5646 154.029 65.6058 162.104C71.6111 170.131 80.3269 175.475 93.014 175.475C98.7734 175.475 104.89 171.934 110.156 166.682C115.186 161.665 119.294 155.228 121.421 149.291C113.559 144.566 105.846 138.998 98.5896 133.188C85.5868 122.933 74.033 111.885 65.7328 103.406C61.5812 99.165 58.241 95.5635 55.9376 93.0212C55.1019 92.0987 54.4026 91.3156 53.8504 90.6919ZM67.162 102.007C75.4264 110.45 86.9163 121.434 99.8312 131.62L99.8371 131.624C107.258 137.567 115.138 143.235 123.142 147.989L123.834 148.4L123.58 149.164C121.434 155.629 117.014 162.667 111.569 168.098C106.146 173.507 99.5466 177.475 93.014 177.475C79.6561 177.474 70.3624 171.801 64.0044 163.302C57.6826 154.852 54.2884 143.651 52.5471 132.562L52.5468 132.56C51.2576 124.23 50.8669 115.916 50.883 108.745L50.883 108.743C50.9082 102.803 51.2195 97.6736 51.5247 94.0282C51.6774 92.2051 51.8286 90.7522 51.9418 89.7533C51.9984 89.2539 52.0456 88.8679 52.0787 88.6058C52.0953 88.4748 52.1083 88.3747 52.1173 88.307L52.1277 88.2297L52.1304 88.2096L52.1315 88.2019C52.1315 88.2017 52.1315 88.2019 53.122 88.339C53.8825 87.6897 53.8824 87.6896 53.8825 87.6897L53.8962 87.7056L53.939 87.7556C53.9773 87.8 54.0347 87.8668 54.111 87.9549C54.2636 88.1312 54.4914 88.3932 54.7908 88.7343C55.3898 89.4166 56.2755 90.4154 57.4198 91.6784C59.7085 94.2045 63.0309 97.7869 67.162 102.007Z" fill="black"/>
<path d="M202.879 88.339C202.879 88.339 204.068 96.931 204.118 108.748C204.091 96.563 202.879 87.661 202.879 87.661C202.879 87.661 182.708 111.649 156.789 132.405C182.708 111.964 202.879 88.339 202.879 88.339Z" stroke="#212121" stroke-width="2" stroke-miterlimit="10"/>
<path d="M202.879 88.339C202.879 88.339 182.708 111.964 156.789 132.405C149.342 138.368 141.424 144.065 133.37 148.849C137.554 161.456 150.694 176.475 162.986 176.475C189.031 176.475 199.004 154.441 202.466 132.407C203.745 124.144 204.134 115.884 204.118 108.749C204.068 96.93 202.879 88.339 202.879 88.339Z" fill="white"/>
<path fill-rule="evenodd" clip-rule="evenodd" d="M203.87 88.2019L202.879 88.339L202.118 87.6897L203.564 85.9963L203.87 88.2019ZM202.151 90.6919C201.598 91.3156 200.899 92.0988 200.063 93.0212C197.76 95.5635 194.42 99.165 190.268 103.406C181.968 111.886 170.414 122.933 157.411 133.188C150.155 138.998 142.441 144.566 134.58 149.291C136.706 155.228 140.814 161.665 145.844 166.682C151.11 171.934 157.227 175.475 162.986 175.475C175.673 175.475 184.389 170.132 190.394 162.105C196.435 154.03 199.758 143.198 201.478 132.253C202.747 124.056 203.134 115.851 203.118 108.752C203.093 102.874 202.785 97.7995 202.483 94.1953C202.366 92.7902 202.249 91.6092 202.151 90.6919ZM202.879 88.339C202.118 87.6897 202.119 87.6896 202.118 87.6897L202.118 87.6904L202.105 87.7056L202.062 87.7556C202.024 87.8 201.966 87.8668 201.89 87.9549C201.737 88.1312 201.51 88.3932 201.21 88.7343C200.611 89.4166 199.725 90.4154 198.581 91.6784C196.293 94.2045 192.97 97.7869 188.839 102.007C180.575 110.45 169.085 121.434 156.17 131.62L156.164 131.624C148.743 137.567 140.863 143.235 132.859 147.989L132.167 148.4L132.421 149.164C134.567 155.629 138.987 162.667 144.431 168.098C149.854 173.507 156.453 177.475 162.986 177.475C176.344 177.475 185.637 171.801 191.995 163.303C198.317 154.853 201.712 143.651 203.454 132.562L203.454 132.56C204.743 124.231 205.134 115.917 205.118 108.747L205.118 108.745C205.093 102.804 204.781 97.6742 204.476 94.0284C204.324 92.2052 204.172 90.7522 204.059 89.7534C204.003 89.2539 203.955 88.8679 203.922 88.6058C203.906 88.4748 203.893 88.3747 203.884 88.307L203.873 88.2297L203.87 88.2042L203.87 88.2019C203.87 88.2017 203.87 88.2019 202.879 88.339Z" fill="black"/>
<defs>
<linearGradient id="paint0_linear" x1="165.111" y1="117.108" x2="236.369" y2="188.366" gradientUnits="userSpaceOnUse">
<stop stop-color="#212121" stop-opacity="0.2"/>
<stop offset="1" stop-color="#212121" stop-opacity="0"/>
</linearGradient>
<linearGradient id="paint1_linear" x1="39.2254" y1="101.556" x2="180.154" y2="242.485" gradientUnits="userSpaceOnUse">
<stop stop-color="#212121" stop-opacity="0.2"/>
<stop offset="1" stop-color="#212121" stop-opacity="0"/>
</linearGradient>
</defs>
</svg>

<?xml version="1.0" ?><!DOCTYPE svg  PUBLIC '-//W3C//DTD SVG 1.1//EN'  'http://www.w3.org/Graphics/SVG/1.1/DTD/svg11.dtd'><svg enable-background="new 0 0 256 256" height="256px" id="Layer_1" version="1.1" viewBox="0 0 256 256" width="256px" xml:space="preserve" xmlns="http://www.w3.org/2000/svg" xmlns:xlink="http://www.w3.org/1999/xlink"><g><path d="M128,247.322C62.1,247.322,8.678,193.9,8.678,128C8.678,194.274,62.1,248,128,248   s119.322-53.726,119.322-120C247.322,193.9,193.9,247.322,128,247.322z" fill="#B71C1C" opacity="0.2"/><path d="M128,8.678C193.9,8.678,247.322,62.1,247.322,128C247.322,61.726,193.9,8,128,8   S8.678,61.726,8.678,128C8.678,62.1,62.1,8.678,128,8.678z" fill="#FFFFFF" opacity="0.2"/><circle cx="128" cy="128" fill="#F44336" r="119.322"/></g><linearGradient gradientUnits="userSpaceOnUse" id="SVGID_1_" x1="165.1107" x2="236.3689" y1="117.1078" y2="188.3659"><stop offset="0" style="stop-color:#212121;stop-opacity:0.2"/><stop offset="1" style="stop-color:#212121;stop-opacity:0"/></linearGradient><path d="M203.563,85.313c0,0-20.855,26.337-46.774,47.092c-7.447,5.963-15.365,11.66-23.419,16.444  c2.153,6.487,6.681,13.609,12.242,18.999c0.339,0.35,0.683,0.694,1.032,1.032c0.339,0.35,53.797,53.796,53.875,53.875  c27.443-21.035,45.482-53.718,46.727-90.664c-0.004-0.028,0.033-1.84,0.033-1.84" fill="url(#SVGID_1_)"/><linearGradient gradientUnits="userSpaceOnUse" id="SVGID_2_" x1="39.2254" x2="180.1544" y1="101.5565" y2="242.4855"><stop offset="0" style="stop-color:#212121;stop-opacity:0.2"/><stop offset="1" style="stop-color:#212121;stop-opacity:0"/></linearGradient><path d="M123.662,149.88c-0.384-0.228-0.765-0.468-1.148-0.7c0.038-0.11,0.08-0.222,0.117-0.332  c-8.054-4.784-15.972-10.481-23.419-16.444c-2.928-2.345-5.778-4.732-8.539-7.12c-0.266-0.311-0.416-0.489-0.416-0.489  s-0.006,0.042-0.016,0.116c-0.042-0.037-0.085-0.074-0.128-0.111c-0.581-0.672-0.888-1.037-0.888-1.037s-0.008,0.059-0.02,0.149  c-0.658-0.761-1.012-1.18-1.012-1.18s-0.008,0.059-0.02,0.149c-0.659-0.761-1.012-1.18-1.012-1.18s-0.008,0.059-0.02,0.149  c-0.658-0.761-1.012-1.18-1.012-1.18s-0.008,0.059-0.02,0.149c-0.658-0.761-1.012-1.18-1.012-1.18s-0.008,0.059-0.02,0.149  c-0.658-0.761-1.012-1.18-1.012-1.18s-0.008,0.059-0.02,0.149c-0.658-0.761-1.012-1.18-1.012-1.18s-0.008,0.059-0.02,0.149  c-0.658-0.761-1.012-1.18-1.012-1.18s-0.008,0.059-0.02,0.149c-0.658-0.761-1.012-1.18-1.012-1.18s-0.008,0.059-0.02,0.149  c-0.658-0.761-1.012-1.18-1.012-1.18s-0.008,0.059-0.02,0.149c-0.658-0.761-1.012-1.18-1.012-1.18s-0.008,0.059-0.02,0.149  c-0.658-0.761-1.012-1.18-1.012-1.18s-0.008,0.059-0.02,0.149c-0.658-0.761-1.012-1.18-1.012-1.18s-0.008,0.059-0.02,0.149  c-0.658-0.761-1.012-1.18-1.012-1.18s-0.008,0.059-0.02,0.149c-0.658-0.761-1.012-1.18-1.012-1.18s-0.008,0.059-0.02,0.149  c-0.658-0.761-1.012-1.18-1.012-1.18s-0.008,0.059-0.02,0.149c-0.658-0.761-1.012-1.18-1.012-1.18s-0.008,0.059-0.02,0.149  c-0.658-0.761-1.012-1.18-1.012-1.18s-0.008,0.059-0.02,0.149c-0.658-0.761-1.012-1.18-1.012-1.18s-0.008,0.059-0.02,0.149  c-0.658-0.761-1.012-1.18-1.012-1.18s-0.008,0.059-0.02,0.149c-0.658-0.761-1.012-1.18-1.012-1.18s-0.008,0.059-0.02,0.149  c-0.658-0.761-1.012-1.18-1.012-1.18s-0.008,0.059-0.02,0.149c-0.659-0.761-1.012-1.18-1.012-1.18s-0.008,0.059-0.019,0.149  c-0.658-0.761-1.012-1.18-1.012-1.18s-0.008,0.059-0.019,0.149c-0.659-0.761-1.012-1.18-1.012-1.18s-0.008,0.059-0.019,0.149  c-0.659-0.761-1.012-1.18-1.012-1.18s-0.008,0.059-0.019,0.149c-0.659-0.761-1.012-1.18-1.012-1.18s-0.008,0.059-0.019,0.149  c-0.659-0.761-1.012-1.18-1.012-1.18s-0.008,0.059-0.019,0.149c-0.659-0.761-1.012-1.18-1.012-1.18s-0.008,0.059-0.019,0.149  c-0.659-0.761-1.012-1.18-1.012-1.18s-0.008,0.059-0.019,0.149c-0.659-0.761-1.012-1.18-1.012-1.18s-0.008,0.059-0.019,0.149  c-0.659-0.761-1.012-1.18-1.012-1.18s-0.008,0.059-0.019,0.149c-0.659-0.761-1.012-1.18-1.012-1.18s-0.008,0.059-0.019,0.149  c-0.659-0.761-1.012-1.18-1.012-1.18s-0.008,0.059-0.019,0.149c-0.659-0.761-1.012-1.18-1.012-1.18s-0.008,0.059-0.019,0.149  c-0.659-0.761-1.012-1.18-1.012-1.18s-1.212,8.901-1.239,21.086c-0.016,7.136,0.373,15.396,1.652,23.66  c2.081,13.243,6.52,26.478,15.38,34.937c0.338,0.35,78.044,78.06,78.396,78.396c0.005,0.005,0.011,0.011,0.016,0.016  c18.724-3.05,35.981-10.455,50.703-21.144C197.957,224.568,123.625,149.99,123.662,149.88z" fill="url(#SVGID_2_)"/><g><path d="M99.211,132.405   c-25.919-20.756-46.09-44.744-46.09-44.744s-1.212,8.901-1.239,21.086c0.05-11.817,1.239-20.408,1.239-20.408   S73.292,111.964,99.211,132.405z" fill="none" stroke="#212121" stroke-miterlimit="10" stroke-width="2"/><path d="M93.014,176.475   c12.292,0,25.432-15.019,29.617-27.626c-8.054-4.784-15.972-10.481-23.419-16.444c-25.919-20.441-46.09-44.066-46.09-44.066   s-1.189,8.591-1.239,20.408c-0.016,7.136,0.373,15.396,1.652,23.66C56.995,154.441,66.969,176.474,93.014,176.475z" fill="#FFFFFF" stroke="#000000" stroke-miterlimit="10" stroke-width="2"/><path d="M202.879,88.339c0,0,1.189,8.592,1.239,20.409   c-0.027-12.185-1.239-21.087-1.239-21.087s-20.171,23.988-46.09,44.744C182.708,111.964,202.879,88.339,202.879,88.339z" fill="none" stroke="#212121" stroke-miterlimit="10" stroke-width="2"/><path d="M202.879,88.339c0,0-20.171,23.625-46.09,44.066   c-7.447,5.963-15.365,11.66-23.419,16.444c4.184,12.607,17.324,27.626,29.616,27.626c26.045,0,36.018-22.034,39.48-44.068   c1.279-8.263,1.668-16.523,1.652-23.658C204.068,96.93,202.879,88.339,202.879,88.339z" fill="#FFFFFF" stroke="#000000" stroke-miterlimit="10" stroke-width="2"/></g></svg>
